assets/img/social/wa.svg

<svg width="25" height="24" viewBox="0 0 25 24" fill="none" xmlns="http://www.w3.org/2000/svg">
<path d="M0.653259 24C1.1608 22.1093 1.60862 20.3406 2.11616 18.6023C2.26544 18.0839 2.23558 17.6875 1.99674 17.1995C-1.88443 9.20969 3.90747 -0.121947 12.655 0.0305307C18.4469 0.122017 23.582 4.97081 24 10.765C24.4478 17.1385 20.3278 22.5972 14.3866 23.6036C11.9087 24.0305 9.55009 23.6951 7.31096 22.5972C6.9527 22.4143 6.65414 22.4143 6.26603 22.5362C4.44486 22.9937 2.6237 23.4511 0.653259 24ZM3.51935 21.1335C4.41501 20.8895 5.25095 20.7065 6.05704 20.4321C6.77356 20.1881 7.34081 20.3101 7.99762 20.6455C11.5504 22.4143 15.0136 22.1703 18.1782 19.7307C21.313 17.3215 22.5371 13.967 21.8504 10.0331C20.8353 4.39139 15.1927 0.823415 9.90836 2.37869C4.32544 3.99495 1.19065 9.94159 3.42979 15.3088C4.26573 17.3215 4.20602 18.9683 3.54921 20.798C3.51935 20.8895 3.51935 20.9505 3.51935 21.1335Z" fill="#F8F8F8"/>
<path d="M15.133 17.596C13.5805 17.413 11.9684 16.6506 10.5055 15.4918C9.10227 14.3634 7.96778 12.9911 7.10198 11.4054C6.14661 9.66712 6.26603 8.14234 7.37067 6.92252C8.20662 6.00765 9.19184 6.16013 9.63967 7.31896C9.75909 7.62392 9.84865 7.92887 9.99793 8.20333C10.5353 9.0877 10.5652 9.91108 9.72923 10.643C9.43068 10.9174 9.49039 11.1919 9.66952 11.4969C10.595 12.9911 11.8191 14.089 13.4014 14.7904C13.9687 15.0343 14.1179 14.6684 14.3866 14.3634C15.342 13.2351 15.342 13.2351 16.6855 13.8755C16.8945 13.967 17.1035 14.089 17.3124 14.1805C18.4469 14.7599 18.5664 15.8272 17.6408 16.7116C17.0437 17.291 16.2974 17.596 15.133 17.596Z" fill="#F8F8F8"/>
</svg>

<svg width="25" height="24" fill="none" xmlns="http://www.w3.org/2000/svg"><path d="M.653 24c.508-1.89.956-3.66 1.463-5.398.15-.518.12-.915-.12-1.402C-1.883 9.21 3.908-.122 12.656.03 18.447.123 23.582 4.97 24 10.766c.448 6.373-3.672 11.832-9.613 12.839-2.478.427-4.837.091-7.076-1.007-.358-.183-.657-.183-1.045-.06-1.821.457-3.642.914-5.613 1.463zm2.866-2.866c.896-.244 1.732-.428 2.538-.702.717-.244 1.284-.122 1.94.213 3.553 1.77 7.017 1.525 10.181-.914 3.135-2.41 4.36-5.764 3.672-9.698C20.835 4.391 15.193.823 9.908 2.38 4.325 3.995 1.191 9.942 3.43 15.309c.836 2.013.776 3.66.12 5.489-.03.092-.03.153-.03.336z" fill="#F8F8F8"/><path d="M15.133 17.596c-1.552-.183-3.165-.945-4.627-2.104a13.493 13.493 0 01-3.404-4.087c-.955-1.738-.836-3.263.269-4.482.836-.915 1.82-.763 2.269.396.12.305.209.61.358.884.537.885.567 1.708-.269 2.44-.298.274-.239.549-.06.854.926 1.494 2.15 2.592 3.732 3.293.568.244.717-.122.986-.427.955-1.128.955-1.128 2.299-.487.209.091.418.213.626.305 1.135.579 1.254 1.646.329 2.53-.597.58-1.344.885-2.508.885z" fill="#F8F8F8"/></svg>
